X: 408
T: Bir Pür Cefâ Hoş Dilberdir
C: III. Selim (İlhâmî)
O: Turkey
F: http://compmusic.upf.edu/node/140
N: buselik--sarki--aksak--bir_pur_cefa--iii_selim
N: makam= buselik
N: form= sarki
N: usul= aksak = 9/8
M: 9/8
L: 1/16
K: C    
Q: 1/4=156
%%MIDI tuningsystem comma53
G4 c4 BA^GA .B2.c2 .^c2 | d4e2 {f}eddc cd.e2 .f2.^f2  | \
w:  ARANAĞME  |   | 
g4 a3e efed edcB cd | 
w:   | 
ed cBdc BAcB A^GA6  | G4 c4 BA^GA .B2.c2 .^c2 | 
w:   |  ARANAĞME  | 
d4e2 {f}eddc cd.e2 .f2.^f2  | g4 a3e efed edcB cd | 
w:   |   | 
ed cBdc BAcB A^GA3cBd  | c4 c4 B4 A2G4 | 
w:   |  *  Bir  pür  ce fâ   | 
A4B4c2 Bdc4Bd  | c2z2 dcBc d2{e}d2 e6 | \
w:  hoş  dil ber *  *  dir   SAZ  |  *  Müp *  te *  lâ *  *  yım   | 
de fgef decB AGc6  | 
w:  hay *  *  *  *  *  *  *  li  *  *  *  dem  | 
d3/2c/Bc BcBA cBA^G A4 {e}d2 | {f}e4d3ee4e2 e4  | \
w:  dir   *  *  *  *  *  *  *  *  *  *  *  *  *  SAZ  |  *  *  El *  bet  gö nül   | 
e4 f3e eddc f4 eg | 
w:  ar zu  *  ey *  *  *  ler   SAZ  | 
f4f4f2 {g}feed d2{e}dc  | Bcd4cB cBAG c6 | \
w:  *  Gül  ya *  *  *  na *  ğı   |  her  *  *  *  *  şeb  *  *  *  ter  | 
d3/2c/ BcBc BAcB A^GA4{c}B2  | 
w:  dir   *  *  *  *  *  *  *  *  *  *  *  *  *  SAZ  | 
{d}c4 d2c2 B4 ABA2 B2 | {c}BA G2A2 B2c2 Bdc4z2  | \
w:  *  *  Gö re bil sem   |  *  *  *  *  se ve bil *  *  sem    | 
d2_3/4e6 edc2 {^3/4f}g4 ^f_7/8e | 
w:  Yâr  *  *  *  *  *  yâr  a  | 
d_7/8e ^f4 eddc cBc6  | c3z dcBc d2{e}d2 e4-ez | 
w:  man  *  *  a *  man    |  *  Gül  *  ya *  na *  *  ğı   | 
de fgef decB AGc6  | dcBc BcBA cBA^G A6 | 
w:  her  *  *  *  *  *  *  *  şeb  *  *  *  ter  |  dir    | 
G4c4BA ^GA.B2 .c2.^c2  | d4 e2{f}ed dccd .e2.f2 .^f2 | \
w:  ARANAĞME  |   | 
g4a3eef eded cBcd  | 
w:   | 
edcB dcBA cBA^G A6 | G4c4BA ^GA.B2 .c2.^c2  | 
w:   |  ARANAĞME  | 
d4 e2{f}ed dccd .e2.f2 .^f2 | g4a3eef eded cBcd  | 
w:   |   | 
edcB dcBA cBA^G A3c Bd | c4c4B4A2 G4  | 
w:   |  *  Bir  pür  ce fâ   | 
A4 B4 c2Bd c4 Bd | c2 z2dc Bcd2 {e}d2e6  | \
w:  hoş  dil ber *  *  dir   SAZ  |  *  Müp *  te *  lâ *  *  yım   | 
defg efde cBAG c6 | 
w:  hay *  *  *  *  *  *  *  li  *  *  *  dem  | 
d3/2c/ BcBc BAcB A^GA4{e}d2  | {f}e4 d3e e4 e2e4 | \
w:  dir   *  *  *  *  *  *  *  *  *  *  *  *  *  SAZ  |  *  *  El *  bet  gö nül   | 
e4f3eed dcf4eg  | 
w:  ar zu  *  ey *  *  *  ler   SAZ  | 
f4 f4 f2{g}fe edd2 {e}dc | Bc d4 cBcB AGc6  | \
w:  *  Gül  ya *  *  *  na *  ğı   |  her  *  *  *  *  şeb  *  *  *  ter  | 
d3/2c/Bc BcBA cBA^G A4 {c}B2 | 
w:  dir   *  *  *  *  *  *  *  *  *  *  *  *  *  SAZ  | 
{d}c4d2 c2B4AB A2B2  | {c}BAG2 A2B2 c2Bd c4 z2 | \
w:  *  *  Gö re bil sem   |  *  *  *  *  se ve bil *  *  sem    | 
d2 _3/4e6ed c2{^3/4f}g4^f_7/8e  | 
w:  Yâr  *  *  *  *  *  yâr  a  | 
d_7/8e^f4ed dccB c6 | c3zdc Bcd2 {e}d2e4-ez  | 
w:  man  *  *  a *  man    |  *  Gül  *  ya *  na *  *  ğı   | 
defg efde cBAG c6 | dc BcBc BAcB A^GA6  | 
w:  her  *  *  *  *  *  *  *  şeb  *  *  *  ter  |  dir    | 
|


